static/cards/FrenchDeck/default/card_spades_06.svg

<svg width="219" height="304" viewBox="0 0 219 304" fill="none" xmlns="http://www.w3.org/2000/svg">
<g filter="url(#filter0_d_18_639)">
<g clip-path="url(#clip0_18_639)">
<rect x="8" y="4" width="203" height="288" rx="10" fill="white"/>
<path d="M16.0308 31.1274C16.0308 21.498 19.7344 16.1528 26.3809 16.1528C28.5229 16.1528 30.585 16.7334 32.1064 17.7744C33.4277 18.6353 34.2285 19.7363 34.2285 20.6572C34.2285 21.5181 33.6079 22.1587 32.7471 22.1587C32.1865 22.1587 31.7661 21.9385 31.0454 21.2378C29.604 19.8164 28.1025 19.1758 26.3208 19.1758C21.8564 19.1758 19.4941 23.0996 19.4341 30.5869H19.5942C20.5151 28.1445 23.3779 26.4229 26.501 26.4229C31.5859 26.4229 35.1494 30.0864 35.1494 35.3115C35.1494 40.8169 31.3857 44.5605 25.8203 44.5605C22.437 44.5605 19.7344 43.1592 18.0928 40.5767C16.7114 38.3745 16.0308 35.2715 16.0308 31.1274ZM19.9346 35.4316C19.9346 39.0151 22.417 41.5576 25.9604 41.5576C29.4038 41.5576 31.7061 39.1353 31.7061 35.4517C31.7061 31.8081 29.3838 29.4058 25.8203 29.4058C22.3569 29.4058 19.9346 31.8882 19.9346 35.4316Z" fill="#211C1D"/>
<path d="M24.2375 72C24.0275 72 23.8572 71.8365 23.8572 71.6348C23.8572 71.2053 24.9342 68.3825 25.1943 66.4832C25.2256 66.2548 24.9357 66.1637 24.8047 66.3495C24.177 67.2399 23.5441 68.1922 21.8225 68.2149C18.615 68.2572 16.7672 65.2101 17.7761 62.4373C18.2708 61.0778 25.0754 52 26 52C26.9245 52 33.7292 61.0778 34.2239 62.4373C35.2328 65.2101 33.385 68.2572 30.1775 68.2149C28.4559 68.1922 27.823 67.2399 27.1953 66.3495C27.0643 66.1637 26.7744 66.2548 26.8057 66.4832C27.0658 68.3825 28.1428 71.2053 28.1428 71.6348C28.1428 71.8365 27.9725 72 27.7625 72H24.2375Z" fill="#211C1D"/>
<path d="M202.969 264.873C202.969 274.502 199.266 279.847 192.619 279.847C190.477 279.847 188.415 279.267 186.894 278.226C185.572 277.365 184.771 276.264 184.771 275.343C184.771 274.482 185.392 273.841 186.253 273.841C186.813 273.841 187.234 274.062 187.955 274.762C189.396 276.184 190.897 276.824 192.679 276.824C197.144 276.824 199.506 272.9 199.566 265.413L199.406 265.413C198.485 267.855 195.622 269.577 192.499 269.577C187.414 269.577 183.851 265.914 183.851 260.688C183.851 255.183 187.614 251.439 193.18 251.439C196.563 251.439 199.266 252.841 200.907 255.423C202.289 257.625 202.969 260.729 202.969 264.873ZM199.065 260.568C199.065 256.985 196.583 254.442 193.04 254.442C189.596 254.442 187.294 256.865 187.294 260.548C187.294 264.192 189.616 266.594 193.18 266.594C196.643 266.594 199.065 264.112 199.065 260.568Z" fill="#211C1D"/>
<path d="M194.762 224C194.973 224 195.143 224.164 195.143 224.365C195.143 224.795 194.066 227.617 193.806 229.517C193.774 229.745 194.064 229.836 194.195 229.65C194.823 228.76 195.456 227.808 197.178 227.785C200.385 227.743 202.233 230.79 201.224 233.563C200.729 234.922 193.925 244 193 244C192.075 244 185.271 234.922 184.776 233.563C183.767 230.79 185.615 227.743 188.823 227.785C190.544 227.808 191.177 228.76 191.805 229.65C191.936 229.836 192.226 229.745 192.194 229.517C191.934 227.617 190.857 224.795 190.857 224.365C190.857 224.164 191.027 224 191.238 224L194.762 224Z" fill="#211C1D"/>
<path d="M61.353 76C60.8588 76 60.4582 75.6076 60.4582 75.1235C60.4582 74.0926 62.9923 67.318 63.6043 62.7596C63.6779 62.2115 62.9958 61.993 62.6876 62.4389C61.2105 64.5759 59.7215 66.8613 55.6706 66.9157C48.1234 67.0172 43.7757 59.7041 46.1497 53.0496C47.3137 49.7867 63.3245 28 65.5 28C67.6754 28 83.6864 49.7867 84.8503 53.0496C87.2243 59.7041 82.8766 67.0172 75.3294 66.9157C71.2785 66.8613 69.7895 64.5759 68.3124 62.4389C68.0042 61.993 67.3221 62.2115 67.3957 62.7596C68.0077 67.318 70.5418 74.0926 70.5418 75.1235C70.5418 75.6076 70.1412 76 69.647 76H61.353Z" fill="#211C1D"/>
<path d="M61.353 220C60.8588 220 60.4582 220.392 60.4582 220.877C60.4582 221.907 62.9923 228.682 63.6043 233.24C63.6779 233.789 62.9958 234.007 62.6876 233.561C61.2105 231.424 59.7215 229.139 55.6706 229.084C48.1234 228.983 43.7757 236.296 46.1497 242.95C47.3137 246.213 63.3245 268 65.5 268C67.6754 268 83.6864 246.213 84.8503 242.95C87.2243 236.296 82.8766 228.983 75.3294 229.084C71.2785 229.139 69.7895 231.424 68.3124 233.561C68.0042 234.007 67.3221 233.789 67.3957 233.24C68.0077 228.682 70.5418 221.907 70.5418 220.877C70.5418 220.392 70.1412 220 69.647 220H61.353Z" fill="#211C1D"/>
<path d="M149.353 76C148.859 76 148.458 75.6076 148.458 75.1235C148.458 74.0926 150.992 67.318 151.604 62.7596C151.678 62.2115 150.996 61.993 150.688 62.4389C149.211 64.5759 147.721 66.8613 143.671 66.9157C136.123 67.0172 131.776 59.7041 134.15 53.0496C135.314 49.7867 151.325 28 153.5 28C155.675 28 171.686 49.7867 172.85 53.0496C175.224 59.7041 170.877 67.0172 163.329 66.9157C159.279 66.8613 157.789 64.5759 156.312 62.4389C156.004 61.993 155.322 62.2115 155.396 62.7596C156.008 67.318 158.542 74.0926 158.542 75.1235C158.542 75.6076 158.141 76 157.647 76H149.353Z" fill="#211C1D"/>
<path d="M61.353 172C60.8588 172 60.4582 171.608 60.4582 171.123C60.4582 170.093 62.9923 163.318 63.6043 158.76C63.6779 158.211 62.9958 157.993 62.6876 158.439C61.2105 160.576 59.7215 162.861 55.6706 162.916C48.1234 163.017 43.7757 155.704 46.1497 149.05C47.3137 145.787 63.3245 124 65.5 124C67.6754 124 83.6864 145.787 84.8503 149.05C87.2243 155.704 82.8766 163.017 75.3294 162.916C71.2785 162.861 69.7895 160.576 68.3124 158.439C68.0042 157.993 67.3221 158.211 67.3957 158.76C68.0077 163.318 70.5418 170.093 70.5418 171.123C70.5418 171.608 70.1412 172 69.647 172H61.353Z" fill="#211C1D"/>
<path d="M149.353 172C148.859 172 148.458 171.608 148.458 171.123C148.458 170.093 150.992 163.318 151.604 158.76C151.678 158.211 150.996 157.993 150.688 158.439C149.211 160.576 147.721 162.861 143.671 162.916C136.123 163.017 131.776 155.704 134.15 149.05C135.314 145.787 151.325 124 153.5 124C155.675 124 171.686 145.787 172.85 149.05C175.224 155.704 170.877 163.017 163.329 162.916C159.279 162.861 157.789 160.576 156.312 158.439C156.004 157.993 155.322 158.211 155.396 158.76C156.008 163.318 158.542 170.093 158.542 171.123C158.542 171.608 158.141 172 157.647 172H149.353Z" fill="#211C1D"/>
<path d="M149.353 220C148.859 220 148.458 220.392 148.458 220.877C148.458 221.907 150.992 228.682 151.604 233.24C151.678 233.789 150.996 234.007 150.688 233.561C149.211 231.424 147.721 229.139 143.671 229.084C136.123 228.983 131.776 236.296 134.15 242.95C135.314 246.213 151.325 268 153.5 268C155.675 268 171.686 246.213 172.85 242.95C175.224 236.296 170.877 228.983 163.329 229.084C159.279 229.139 157.789 231.424 156.312 233.561C156.004 234.007 155.322 233.789 155.396 233.24C156.008 228.682 158.542 221.907 158.542 220.877C158.542 220.392 158.141 220 157.647 220H149.353Z" fill="#211C1D"/>
</g>
</g>
<defs>
<filter id="filter0_d_18_639" x="0" y="0" width="219" height="304" filterUnits="userSpaceOnUse" color-interpolation-filters="sRGB">
<feFlood flood-opacity="0" result="BackgroundImageFix"/>
<feColorMatrix in="SourceAlpha" type="matrix" values="0 0 0 0 0 0 0 0 0 0 0 0 0 0 0 0 0 0 127 0" result="hardAlpha"/>
<feOffset dy="4"/>
<feGaussianBlur stdDeviation="4"/>
<feComposite in2="hardAlpha" operator="out"/>
<feColorMatrix type="matrix" values="0 0 0 0 0.614771 0 0 0 0 0.70094 0 0 0 0 0.806257 0 0 0 1 0"/>
<feBlend mode="normal" in2="BackgroundImageFix" result="effect1_dropShadow_18_639"/>
<feBlend mode="normal" in="SourceGraphic" in2="effect1_dropShadow_18_639" result="shape"/>
</filter>
<clipPath id="clip0_18_639">
<rect x="8" y="4" width="203" height="288" rx="10" fill="white"/>
</clipPath>
</defs>
</svg>

<svg xmlns="http://www.w3.org/2000/svg" width="219" height="304" fill="none" viewBox="0 0 219 304"><g filter="url(#a)"><g clip-path="url(#b)"><rect width="203" height="288" x="8" y="4" fill="#fff" rx="10"/><path fill="#211c1d" d="M16.03 31.127c0-9.629 3.704-14.974 10.35-14.974 2.143 0 4.205.58 5.726 1.621 1.322.861 2.122 1.962 2.122 2.883 0 .861-.62 1.502-1.48 1.502-.561 0-.982-.22-1.703-.921-1.441-1.422-2.943-2.062-4.724-2.062-4.465 0-6.827 3.924-6.887 11.41h.16c.921-2.441 3.784-4.163 6.907-4.163 5.085 0 8.648 3.663 8.648 8.889 0 5.505-3.763 9.249-9.329 9.249-3.383 0-6.086-1.402-7.727-3.984-1.382-2.203-2.062-5.305-2.062-9.45m3.905 4.305c0 3.583 2.482 6.126 6.025 6.126 3.444 0 5.746-2.423 5.746-6.106 0-3.644-2.322-6.046-5.886-6.046-3.463 0-5.885 2.482-5.885 6.026M24.238 72a.373.373 0 0 1-.38-.365c0-.43 1.076-3.253 1.336-5.152.032-.228-.258-.32-.39-.133-.627.89-1.26 1.842-2.981 1.865-3.208.042-5.056-3.005-4.047-5.778C18.271 61.077 25.076 52 26 52s7.73 9.078 8.224 10.437c1.009 2.773-.839 5.82-4.046 5.778-1.722-.023-2.355-.975-2.983-1.865-.13-.186-.42-.095-.39.133.26 1.9 1.338 4.722 1.338 5.152 0 .201-.17.365-.38.365zM202.969 264.873c0 9.629-3.703 14.974-10.35 14.974-2.142 0-4.204-.58-5.725-1.621-1.322-.861-2.123-1.962-2.123-2.883 0-.861.621-1.502 1.482-1.502.56 0 .981.221 1.702.921 1.441 1.422 2.942 2.062 4.724 2.062 4.465 0 6.827-3.924 6.887-11.411h-.16c-.921 2.442-3.784 4.164-6.907 4.164-5.085 0-8.648-3.663-8.648-8.889 0-5.505 3.763-9.249 9.329-9.249 3.383 0 6.086 1.402 7.727 3.984 1.382 2.202 2.062 5.306 2.062 9.45m-3.904-4.305c0-3.583-2.482-6.126-6.025-6.126-3.444 0-5.746 2.423-5.746 6.106 0 3.644 2.322 6.046 5.886 6.046 3.463 0 5.885-2.482 5.885-6.026M194.762 224c.211 0 .381.164.381.365 0 .43-1.077 3.252-1.337 5.152-.032.228.258.319.389.133.628-.89 1.261-1.842 2.983-1.865 3.207-.042 5.055 3.005 4.046 5.778C200.729 234.922 193.925 244 193 244s-7.729-9.078-8.224-10.437c-1.009-2.773.839-5.82 4.047-5.778 1.721.023 2.354.975 2.982 1.865.131.186.421.095.389-.133-.26-1.9-1.337-4.722-1.337-5.152 0-.201.17-.365.381-.365zM61.353 76a.886.886 0 0 1-.895-.876c0-1.031 2.534-7.806 3.146-12.364.074-.548-.608-.767-.916-.321-1.477 2.137-2.967 4.422-7.017 4.477-7.548.101-11.895-7.212-9.521-13.866C47.314 49.787 63.325 28 65.5 28s18.186 21.787 19.35 25.05c2.374 6.654-1.973 13.967-9.52 13.866-4.052-.055-5.54-2.34-7.018-4.477-.308-.446-.99-.227-.916.32.612 4.559 3.146 11.334 3.146 12.365 0 .484-.4.876-.895.876zM61.353 220a.886.886 0 0 0-.895.877c0 1.03 2.534 7.805 3.146 12.363.074.549-.608.767-.916.321-1.477-2.137-2.967-4.422-7.017-4.477-7.548-.101-11.895 7.212-9.521 13.866C47.314 246.213 63.325 268 65.5 268s18.186-21.787 19.35-25.05c2.374-6.654-1.973-13.967-9.52-13.866-4.052.055-5.54 2.34-7.018 4.477-.308.446-.99.228-.916-.321.612-4.558 3.146-11.333 3.146-12.363 0-.485-.4-.877-.895-.877zM149.353 76a.886.886 0 0 1-.895-.876c0-1.031 2.534-7.806 3.146-12.364.074-.548-.608-.767-.916-.321-1.477 2.137-2.967 4.422-7.017 4.477-7.548.101-11.895-7.212-9.521-13.866C135.314 49.787 151.325 28 153.5 28s18.186 21.787 19.35 25.05c2.374 6.654-1.973 13.967-9.521 13.866-4.05-.055-5.54-2.34-7.017-4.477-.308-.446-.99-.227-.916.32.612 4.559 3.146 11.334 3.146 12.365a.886.886 0 0 1-.895.876zM61.353 172a.886.886 0 0 1-.895-.877c0-1.03 2.534-7.805 3.146-12.363.074-.549-.608-.767-.916-.321-1.477 2.137-2.967 4.422-7.017 4.477-7.548.101-11.895-7.212-9.521-13.866C47.314 145.787 63.325 124 65.5 124s18.186 21.787 19.35 25.05c2.374 6.654-1.973 13.967-9.52 13.866-4.052-.055-5.54-2.34-7.018-4.477-.308-.446-.99-.228-.916.321.612 4.558 3.146 11.333 3.146 12.363 0 .485-.4.877-.895.877zM149.353 172a.886.886 0 0 1-.895-.877c0-1.03 2.534-7.805 3.146-12.363.074-.549-.608-.767-.916-.321-1.477 2.137-2.967 4.422-7.017 4.477-7.548.101-11.895-7.212-9.521-13.866 1.164-3.263 17.175-25.05 19.35-25.05s18.186 21.787 19.35 25.05c2.374 6.654-1.973 13.967-9.521 13.866-4.05-.055-5.54-2.34-7.017-4.477-.308-.446-.99-.228-.916.321.612 4.558 3.146 11.333 3.146 12.363a.886.886 0 0 1-.895.877zM149.353 220a.886.886 0 0 0-.895.877c0 1.03 2.534 7.805 3.146 12.363.074.549-.608.767-.916.321-1.477-2.137-2.967-4.422-7.017-4.477-7.548-.101-11.895 7.212-9.521 13.866 1.164 3.263 17.175 25.05 19.35 25.05s18.186-21.787 19.35-25.05c2.374-6.654-1.973-13.967-9.521-13.866-4.05.055-5.54 2.34-7.017 4.477-.308.446-.99.228-.916-.321.612-4.558 3.146-11.333 3.146-12.363a.886.886 0 0 0-.895-.877z"/></g></g><defs><clipPath id="b"><rect width="203" height="288" x="8" y="4" fill="#fff" rx="10"/></clipPath><filter id="a" width="219" height="304" x="0" y="0" color-interpolation-filters="sRGB" filterUnits="userSpaceOnUse"><feFlood flood-opacity="0" result="BackgroundImageFix"/><feColorMatrix in="SourceAlpha" result="hardAlpha" values="0 0 0 0 0 0 0 0 0 0 0 0 0 0 0 0 0 0 127 0"/><feOffset dy="4"/><feGaussianBlur stdDeviation="4"/><feComposite in2="hardAlpha" operator="out"/><feColorMatrix values="0 0 0 0 0.614771 0 0 0 0 0.70094 0 0 0 0 0.806257 0 0 0 1 0"/><feBlend in2="BackgroundImageFix" result="effect1_dropShadow_18_639"/><feBlend in="SourceGraphic" in2="effect1_dropShadow_18_639" result="shape"/></filter></defs></svg>
